app/_includes/svgs/technology-logos/logo_npm.min.svg

<svg xmlns="http://www.w3.org/2000/svg" viewBox="0 0 150 100" enable-background="new 0 0 150 100"><path fill="#CB3837" d="M0 0v33.3h27.8v5.6h22.2v-5.6h50v-33.3"/><path fill="#fff" d="M5.6 5.6v22.2h11.1v-16.7h5.6v16.7h5.6v-22.2h5.6v27.8h11.1v-22.3h5.4v11.1h-5.6v5.6h11.1v-22.2h5.6v22.2h11.1v-16.7h5.6v16.7h5.6v-16.7h5.6v16.7h5.6v-22.2"/></svg>

<svg xmlns="http://www.w3.org/2000/svg" viewBox="0 0 150 100" enable-background="new 0 0 150 100"><path fill="#CB3837" d="M0 0v33.3h27.8v5.6H50v-5.6h50V0"/><path fill="#fff" d="M5.6 5.6v22.2h11.1V11.1h5.6v16.7h5.6V5.6h5.6v27.8h11.1V11.1H50v11.1h-5.6v5.6h11.1V5.6h5.6v22.2h11.1V11.1h5.6v16.7h5.6V11.1H89v16.7h5.6V5.6"/></svg>
